X:1
T:Quand je veux en amour
T:Jean de Castro
T:Source : Livre de chansons à 3 parties---Paris---A.le Roy & R.Ballard---1575. Editor : André Vierendeels (29/01/16).
T:Notes : Original clefs : C1, C3, C4 Editorial accidentals above the staff Ses also "Seconde partie : Lors je luy respon" by the same composer.
T:Quand je veux en amour
T:©
T:©
T:©
T:©
C:Jean de Castro
Z:©
%%score [ 1 2 3 ]
L:1/8
Q:1/4=120
M:2/2
K:C
V:1 treble nm="Soprano" snm="S"
V:2 treble nm="Alto" snm="A"
V:3 treble-8 nm="Tenor" snm="T"
V:1
 G4 G2 G2 | A2 A2 B4 | c4 B4- | B2 c2 A2 A2 | B8 | z2 G2 c4 | A2 A2 B4 | G2 A4 GF | E2 F2 E4 | %9
w: Quand je veux|en a- mour|pren- dre|_ mes pas- se-|tés,|ma mi-|e, ma mi-|e, en se _|_ mo- quant,|
 z2 A2 ^G2 A2 | DEFG A2 c2 | B2 c2 d4 | z2 G2 G2 G2 | A4 z2 G2- | G2 c4 B2 | A2 G2 A4 | B4 z2 G2 | %17
w: en se mo-|quant, _ _ _ _ en|se mo- quant:,|en se mo-|quant, layd|_ et vieil-|lart me nom-|me: "Quoy,"|
 A2 B2 c2 A2 | B2 c2 c2 B2 | c2 d2 e4 | z2 G2 A2 B2 | c2 A2 B2 B2 | c2 A2 c2 c2 | B2 G2 A2 c2- | %24
w: dit el- le, "re-|veur, tu as plus|de cent ans"|"Quoy," dit el-|le, "re- veur, tu|as plus de cent|ans, quoy," dit el-|
"^b" c2 B4 A2 |"^-natural" B4 z2 c2 | A2 G2 G2 F2 | G2 d2 B2 d2 | c2 B2 A4 | D4 z2 d2- | d2 c4 B2 | %31
w: * le, "re-|veur, tu|as plus de cent|ans et tu veux|con- tre fay-|re et|_ tu veux|
 A2 G2 A4 | B8 | z2 G4 F2- | F2 E2 D2 ^F2 |"^#" G2 A2 A2 F2 | G2 G2 G4 | !fermata!^F8 |] %38
w: con- tre- fay-|re,|et tu|_ veux con- tre-|fay- re en- cor'|le jeun' hom-|me.|
V:2
 E4 E2 G2 | G2 ^F2 G4 | A4 G4- | G2 G2 ^F2 F2 | G2 D2 G4 | E2 F2 A4 | ^F2 F2 G2 D2 | z2 E2 F2 ED | %8
w: Quand je veux|en a- mour|pren- dre|_ mes pas- se-|tés, ma mi-|e, ma mi-|e, ma mi- e,|en se _ _|
 ^C2 D4 C2 | D2 F2 E2 D2 | DCDE F2 E2 | E2 E2 F4 | z2 E2 D2 E2 | FECD EFEF | G2 A2 A2 G2 | %15
w: _ _ mo-|quant, en se mo-|quant, _ _ _ _ en|se mo- quant,|en se mo-|quant, _ _ _ _ _ _ _|_ layd et vieil-|
 ^F2 G2 F4 | G2 D4 E2 | F2 G2 E2 F2 | D2 E2 z2 D2 | C2 B,2 A,2 A2 | G4 z2 D2 | E2 F2 G2 D2 | %22
w: lart me nom-|me: "Quoy," dit|el- le, "re- veur,|tu as plus|de cen- ans, tu|as plus|de cent ans, quoy,"|
 E2 F2 G2 A2 | D2 E2 C2 C2 | D4 F4 | D4 z2 G,2 | D2 B,2 A,2 A,2 | G,4 z2 G2 | E2 G2 z2 ^F2 | %29
w: dit el- le, "re-|veur, tu as plus|de cen-|ans, tu|as plus de cent|ans, et|tu veux, et|
 G2 F2 E2 D2 | E2 C2 D3 E | F2 G2 ^F4 | G8 | z4 z2 D2- | D2 C2 F2 D2 | E2 E2 A,2 D2 | D2 ^CB, C4 | %37
w: tu veux con- tre-|fay- r'en- co- re|le jeun' hom-|me,|et|_ tu veux con-|tre- fay- re en-|cor' le jeun' hom-|
 !fermata!D8 |] %38
w: me.|
V:3
 c4 c2 e2 | d2 d2 G4 | F4 G4- | G2 E2 D2 D2 | G4 z2 G2 | c4 A2 A2 | d4 G2 G2 | c2 A2 F2 G2 | A8 | %9
w: Quand je veux|en a- mour|pren- dre|_ mes pas- se-|tés, ma|mi- e, ma|mi- e, ma|mi' en se mo-|quant|
 z8 | z4 z2 A2 | G2 A2 DEFG | A2 c2 B2 c2 | FGAB c4 | z2 F2 F2 G2 | d2 e2 d4 | G8 | z8 | z4 G4 | %19
w: |en|se mo- quant, _ _ _|_ en se mo-|quant, _ _ _ _|layd et vieil|lart me nom-|me:||"Quoy,"|
 A2 B2 c2 A2 | B2 c2 c2 B2 | A2 A2 G4 |"^#" z2 D2 E2 F2 | G2 E2 F2 A2 | G4 F4 | G4 E4 | D8 | z8 | %28
w: dit el- le, "re-|vur, tu as plus|de cent ans,|quoy," dit el-|le, "re- veur, tu|as plus|de cent|ans,||
 z4 d4 | B2 d2 c2 B2 | A4 G4 | F2 E2 D4 | G2 G2 E2 G2 | F2 E2 D4 | A4 D2 D2 | C4 D4 | E8 | %37
w: et|tu veux con- tre-|fay- re,|con- tre- fay-|re, et tu veux|con- tre- fay-|re en- cor'|le jeun'|hom-|
 !fermata!D8 |] %38
w: me.|

